X: 7048
T: Chirps And Williams
R: reel
M: 4/4
K: Fmajor
AB|:cAdA cAFG|AFDF CFDC|A,DFD GDFD|B,DFD GDFD|
cAdA cAFG|AFDF CFDC|A,DFD GDFD|1 F6 AB:|2 F8||
|:Ac2c c4|cdcA G2F2|DFDF A2A2|DFDF A2A2|
Ac2c c4|cdcA G2F2|DFDF AFDC|1 F6 A2:|2 F6 AB||

